X:5695
T:Gan ainm
R:Slide
S:
H:
N:I think this is a slide
D:All-Ireland Fleadh 19
Z:Adrian Scahill
M:12/8
L:1/8
K:D
d2e f2d e2A A2G|FGA d2A B2E E3|d2e f2d e2A A2f|gfe a2f d3 d2A:||
f2A A2G F2A A2B|=cBA e2f g2e a2g|f2A A2G F2A A2f|gfe a2f d3 d2e:||
